X: 2807
T: Bantry Girl's Lament, The
R: barndance
M: 4/4
K: Amajor
A,B,|"A" C2 B,2 C2 B,C|E6 EF|E2 C2 B,2 B,A,|"E"B,6 A,B,|"A"C2 B,2 C2 B,C|
E6 EF|E2 C2 "E"B,2 B,2|"A"A,6 EF|A3 BA2 EF|E6 EF|E3 CB,2 A,2|"E"B,6 A,B,|
"A" C2 B,2 C2 B,C|E6 EF|E2 C2 "E"B,2 B,2|"A"A,8||

